dist/img/contact/tell.svg

<svg width="20" height="20" viewBox="0 0 20 20" fill="none" xmlns="http://www.w3.org/2000/svg">
<path d="M19.9568 15.4963C19.9002 15.3259 19.5403 15.0748 18.8773 14.7437C18.6977 14.6393 18.4418 14.4974 18.1106 14.3175C17.7792 14.1375 17.4783 13.9717 17.2086 13.8202C16.9384 13.6687 16.6852 13.5219 16.4486 13.3801C16.4108 13.3517 16.2925 13.2689 16.0936 13.1313C15.8945 12.9941 15.7267 12.8923 15.5891 12.8258C15.4519 12.7598 15.3168 12.7266 15.1842 12.7266C14.9949 12.7266 14.7584 12.8616 14.4744 13.1313C14.1904 13.4014 13.9299 13.6947 13.6933 14.0122C13.4566 14.3296 13.2056 14.6229 12.9408 14.8928C12.6755 15.1628 12.4575 15.2977 12.2873 15.2977C12.2018 15.2977 12.0952 15.2739 11.9675 15.2268C11.8399 15.1795 11.7427 15.139 11.6761 15.1063C11.61 15.0729 11.4966 15.0068 11.3355 14.9071C11.1741 14.8076 11.0844 14.7532 11.0655 14.7437C9.7682 14.0238 8.65561 13.1999 7.72749 12.2722C6.79968 11.3439 5.97569 10.2314 5.25604 8.93402C5.24658 8.91507 5.19201 8.82507 5.09265 8.66417C4.99315 8.50313 4.92683 8.38964 4.8937 8.32318C4.86056 8.25696 4.82031 8.15984 4.77305 8.03203C4.72579 7.90422 4.70205 7.79775 4.70205 7.71243C4.70205 7.54208 4.83703 7.32417 5.10693 7.05899C5.37678 6.79396 5.67042 6.54292 5.98753 6.30635C6.3049 6.06978 6.59823 5.80928 6.86819 5.5253C7.13804 5.24117 7.27296 5.00455 7.27296 4.8152C7.27296 4.68271 7.23983 4.54763 7.17361 4.41037C7.10734 4.27281 7.00555 4.10495 6.86819 3.90599C6.73077 3.70713 6.64793 3.58887 6.61948 3.55081C6.47759 3.31425 6.33097 3.06096 6.17928 2.79106C6.02758 2.52121 5.86201 2.22041 5.68201 1.88901C5.50216 1.55777 5.36022 1.302 5.25594 1.1221C4.92469 0.459356 4.6738 0.0993537 4.5033 0.0427365C4.43698 0.0143284 4.33748 0 4.20504 0C3.94921 0 3.61548 0.0472639 3.20359 0.14209C2.79155 0.236767 2.46732 0.336071 2.23055 0.4404C1.75706 0.639157 1.25522 1.21677 0.72487 2.17305C0.241932 3.063 0.000488281 3.94385 0.000488281 4.81495C0.000488281 5.07042 0.0170555 5.31898 0.05019 5.56067C0.0833245 5.80212 0.142529 6.07441 0.227853 6.37749C0.313027 6.68048 0.381734 6.90556 0.433675 7.05212C0.485665 7.19879 0.58273 7.46153 0.72482 7.84044C0.866712 8.21924 0.952035 8.45114 0.980443 8.53636C1.31184 9.46443 1.70483 10.2929 2.15931 11.0221C2.90707 12.2342 3.92752 13.4868 5.22007 14.7794C6.51266 16.072 7.76501 17.0924 8.97715 17.8404C9.70626 18.2949 10.5351 18.6878 11.463 19.0194C11.5483 19.0477 11.7802 19.1328 12.1588 19.2752C12.5376 19.4172 12.8005 19.5143 12.9471 19.5664C13.0938 19.6185 13.319 19.6873 13.6217 19.7726C13.9251 19.8579 14.1971 19.9171 14.4386 19.9505C14.6802 19.9832 14.9288 20 15.1843 20C16.0553 20 16.9362 19.7585 17.8263 19.2756C18.7825 18.7454 19.36 18.2435 19.5588 17.7696C19.6634 17.5331 19.7625 17.2088 19.8572 16.7968C19.9521 16.3849 19.9993 16.0512 19.9993 15.7955C19.9996 15.6625 19.9853 15.5632 19.9568 15.4963Z" fill="#ffffff"/>
</svg>

<svg width="20" height="20" fill="none" xmlns="http://www.w3.org/2000/svg"><path d="M19.957 15.496c-.057-.17-.417-.421-1.08-.752-.18-.105-.435-.247-.766-.426-.332-.18-.633-.346-.902-.498a27.78 27.78 0 01-.76-.44 18.301 18.301 0 00-.355-.249 4.005 4.005 0 00-.505-.305.93.93 0 00-.405-.1c-.19 0-.426.136-.71.405-.284.27-.544.564-.78.881-.237.318-.488.61-.753.88-.266.27-.484.406-.654.406a.964.964 0 01-.32-.071 3.304 3.304 0 01-.29-.12 5.33 5.33 0 01-.341-.2 8.664 8.664 0 00-.27-.163c-1.298-.72-2.41-1.544-3.339-2.472-.927-.928-1.751-2.04-2.471-3.338a8.25 8.25 0 00-.163-.27 5.121 5.121 0 01-.2-.34 3.076 3.076 0 01-.12-.292.961.961 0 01-.07-.32c-.001-.17.134-.388.404-.653s.563-.516.88-.753a6.9 6.9 0 00.881-.78c.27-.285.405-.521.405-.71a.927.927 0 00-.1-.406 3.95 3.95 0 00-.305-.504c-.137-.199-.22-.317-.249-.355-.141-.237-.288-.49-.44-.76a71.55 71.55 0 01-.497-.902c-.18-.331-.322-.587-.426-.767C4.925.46 4.674.1 4.503.042A.795.795 0 004.205 0c-.256 0-.59.047-1.001.142A5.625 5.625 0 002.23.44c-.474.2-.976.777-1.506 1.733C.242 3.063 0 3.943 0 4.815c0 .255.017.504.05.746.033.241.093.513.178.816.085.303.154.529.206.675.052.147.149.41.29.788.143.38.228.611.256.696a12.87 12.87 0 001.18 2.486c.747 1.212 1.768 2.465 3.06 3.757 1.293 1.293 2.545 2.313 3.757 3.061.73.455 1.558.848 2.486 1.18.085.028.317.113.696.255.379.142.641.24.788.291.147.053.372.121.675.207.303.085.575.144.817.178.241.032.49.049.745.049.871 0 1.752-.241 2.642-.724.956-.53 1.534-1.032 1.733-1.506.104-.237.203-.561.298-.973.095-.412.142-.746.142-1.002a.794.794 0 00-.042-.299z" fill="#fff"/></svg>
